src/assets/download-app-store.svg

<svg width="170" height="46" viewBox="0 0 170 46" fill="none" xmlns="http://www.w3.org/2000/svg">
<path d="M16.1566 9.14085C15.8746 6.88489 16.9997 4.49287 18.2534 3.02336C19.6769 1.35793 22.1542 0.081639 24.1252 0C24.3798 2.3512 23.449 4.66159 22.0831 6.35696C20.6623 8.02239 18.3793 9.30957 16.1566 9.14357V9.14085Z" fill="white"/>
<path d="M32.4362 29.0879C32.4088 29.2267 31.6204 31.9589 29.6632 34.7156C28.0152 37.1539 26.3098 39.5323 23.5779 39.5731C20.9308 39.6275 20.0439 38.0193 16.9999 38.0193C13.9559 38.0193 12.9868 39.5323 10.452 39.6275C7.84594 39.7255 5.87773 37.026 4.17232 34.6176C0.777924 29.6894 -1.85547 20.7308 1.67853 14.6378C3.38395 11.6444 6.52376 9.72317 9.86068 9.66874C12.4503 9.62792 14.8729 11.4185 16.4661 11.4185C18.0592 11.4185 21.0129 9.26055 24.0843 9.58438C25.3682 9.62792 29.0281 10.1014 31.3932 13.5194C31.2098 13.631 27.0407 16.0692 27.0845 21.0792C27.1393 27.0715 32.365 29.0607 32.4362 29.0879Z" fill="white"/>
<path d="M55.2609 18.6025H51.1219L44.4316 39.2817H47.8835L49.7258 33.205H56.4845L58.4281 39.2817H61.9758L55.2581 18.6025H55.2609ZM50.3171 30.6552L52.0499 25.267C52.4988 23.558 52.8218 22.2572 53.0353 21.3755H53.1038C53.6129 23.4192 53.9633 24.7064 54.1467 25.267L55.9069 30.6552H50.3171Z" fill="white"/>
<path d="M77.371 26.1485C76.1884 24.7633 74.7239 24.064 72.9501 24.064C70.6972 24.064 69.0054 24.9593 67.894 26.7363H67.8366L67.6532 24.3687H64.7241C64.809 26.0478 64.85 27.6724 64.85 29.2698V45.3282H68.187V37.5017C69.0602 38.9168 70.4809 39.6162 72.4683 39.6162C74.2996 39.6162 75.849 38.9712 77.089 37.6569C78.4851 36.1874 79.1722 34.1845 79.1722 31.6509C79.1722 29.3705 78.5809 27.5472 77.371 26.1485ZM74.7239 35.5696C74.0204 36.5221 73.0486 37.0119 71.7949 37.0119C70.7245 37.0119 69.8513 36.6336 69.1888 35.8935C68.5264 35.1505 68.1897 34.2253 68.1897 33.1504V30.6577C68.1897 30.391 68.2444 30.0563 68.3457 29.6508C68.5428 28.7664 68.9945 28.067 69.6542 27.5227C70.3303 26.9921 71.0777 26.7118 71.8934 26.7118C73.1061 26.7118 74.0751 27.2016 74.7951 28.1813C75.4575 29.1201 75.7805 30.3093 75.7805 31.7652C75.7805 33.3463 75.4274 34.6063 74.7239 35.5723V35.5696Z" fill="white"/>
<path d="M94.6085 26.1485C93.4259 24.7633 91.9614 24.064 90.1876 24.064C87.9347 24.064 86.2457 24.9593 85.1316 26.7363H85.0768L84.8934 24.3687H81.9644C82.0492 26.0478 82.0903 27.6724 82.0903 29.2698V45.3282H85.4272V37.5017C86.3004 38.9168 87.7239 39.6162 89.7085 39.6162C91.5398 39.6162 93.0892 38.9712 94.3265 37.6569C95.7226 36.1874 96.4124 34.1845 96.4124 31.6509C96.4124 29.3705 95.8212 27.5472 94.6085 26.1485ZM91.9614 35.5696C91.2716 36.5221 90.2834 37.0119 89.0324 37.0119C87.962 37.0119 87.0888 36.6336 86.4264 35.8935C85.7639 35.1505 85.4245 34.2253 85.4245 33.1504V30.6577C85.4245 30.391 85.4819 30.0563 85.5805 29.6508C85.7913 28.7664 86.2293 28.067 86.8917 27.5227C87.5679 26.9921 88.3124 26.7118 89.1309 26.7118C90.3409 26.7118 91.3126 27.2016 92.0298 28.1813C92.6923 29.1201 93.0153 30.3093 93.0153 31.7652C93.0153 33.3463 92.6786 34.6063 91.9614 35.5723V35.5696Z" fill="white"/>
<path d="M114.422 29.8877C115.281 30.8538 115.703 32.0566 115.703 33.4853C115.703 35.2487 115.084 36.6774 113.858 37.7822C112.506 38.985 110.62 39.5892 108.197 39.5892C105.955 39.5892 104.17 39.1538 102.818 38.302L103.593 35.5426C105.057 36.3971 106.664 36.8298 108.408 36.8298C109.661 36.8298 110.647 36.5495 111.337 35.9916C112.04 35.431 112.393 34.6745 112.393 33.7384C112.393 32.8975 112.098 32.1981 111.534 31.6239C110.956 31.0497 109.998 30.5163 108.66 30.0265C104.983 28.6686 103.168 26.6929 103.168 24.105C103.168 22.4123 103.817 21.0245 105.098 19.9332C106.382 18.8556 108.085 18.3086 110.212 18.3086C112.098 18.3086 113.674 18.6324 114.928 19.2883L114.085 21.9769C112.903 21.3483 111.578 21.0245 110.086 21.0245C108.917 21.0245 107.986 21.3184 107.326 21.8789C106.776 22.396 106.494 23.0137 106.494 23.7566C106.494 24.5676 106.82 25.2561 107.452 25.7731C108.003 26.263 109.015 26.7936 110.48 27.3678C112.27 28.0835 113.579 28.9217 114.425 29.8877H114.422Z" fill="white"/>
<path d="M123.069 24.3691H126.746V26.8618H123.069V34.1004C123.069 35.9346 123.718 36.8571 125.013 36.8571C125.604 36.8571 126.097 36.8027 126.491 36.702L126.59 39.2219C125.927 39.4587 125.07 39.5866 124 39.5866C122.675 39.5866 121.662 39.1811 120.915 38.381C120.17 37.5837 119.801 36.2394 119.801 34.3644V26.8455H117.619V24.3664H119.801V21.6369L123.069 20.6572V24.3664V24.3691Z" fill="white"/>
<path d="M141.364 26.2604C140.028 24.8045 138.251 24.0752 136.056 24.0752C133.86 24.0752 131.958 24.8181 130.606 26.2876C129.267 27.7571 128.591 29.6484 128.591 31.9561C128.591 34.2637 129.24 36.0027 130.548 37.4449C131.859 38.8872 133.619 39.6138 135.815 39.6138C138.01 39.6138 139.926 38.8573 141.306 37.3443C142.615 35.8747 143.277 33.9998 143.277 31.703C143.277 29.4062 142.642 27.6564 141.361 26.2577L141.364 26.2604ZM138.914 35.3305C138.183 36.536 137.181 37.1374 135.913 37.1374C134.646 37.1374 133.603 36.5496 132.886 35.3577C132.295 34.3916 131.999 33.216 131.999 31.8445C131.999 30.473 132.281 29.2429 132.886 28.2606C133.576 27.0713 134.605 26.4808 135.944 26.4808C137.282 26.4808 138.237 27.0686 138.944 28.2606C139.535 29.2402 139.831 30.4022 139.831 31.7738C139.831 33.1453 139.521 34.3209 138.916 35.3278L138.914 35.3305Z" fill="white"/>
<path d="M154.109 24.1187L154.123 27.2808C153.8 27.2264 153.447 27.1965 153.069 27.1965C151.9 27.1965 150.986 27.6319 150.351 28.5136C149.8 29.281 149.518 30.277 149.518 31.4526V39.279H146.182V29.0605C146.182 27.338 146.154 25.7705 146.083 24.369H148.985L149.111 27.2264H149.209C149.56 26.2467 150.11 25.4467 150.871 24.8589C151.618 24.3282 152.42 24.0615 153.28 24.0615C153.589 24.0615 153.871 24.0887 154.112 24.1159L154.109 24.1187Z" fill="white"/>
<path d="M169.022 31.1177C169.022 29.2563 168.573 27.7024 167.686 26.4125C166.586 24.8178 164.941 24.0205 162.784 24.0205C160.627 24.0205 158.842 24.8178 157.544 26.4125C156.304 27.912 155.686 29.7869 155.686 32.0293C155.686 34.2716 156.348 36.1439 157.67 37.5018C158.995 38.8598 160.824 39.5455 163.148 39.5455C165.078 39.5455 166.753 39.238 168.176 38.6203L167.656 36.3262C166.444 36.7888 165.091 37.0256 163.613 37.0256C162.277 37.0256 161.191 36.6746 160.347 35.9888C159.417 35.2187 158.94 34.0839 158.897 32.6144H168.894C168.978 32.2089 169.02 31.7055 169.02 31.1149L169.022 31.1177ZM158.91 30.2496C159.009 29.2536 159.348 28.3882 159.896 27.6725C160.572 26.7772 161.459 26.3282 162.543 26.3282C163.725 26.3282 164.615 26.7908 165.19 27.716C165.639 28.429 165.866 29.2835 165.839 30.2632L158.907 30.2496H158.91Z" fill="white"/>
<path d="M51.6965 1.14551C55.1512 1.14551 57.196 3.25724 57.196 6.90106C57.196 10.5449 55.1594 12.6947 51.6965 12.6947H47.5986V1.14551H51.6965ZM49.4026 11.1408H51.5268C53.9905 11.1408 55.351 9.64413 55.351 6.91466C55.351 4.1852 53.9823 2.68849 51.5268 2.68849H49.4026V11.1408Z" fill="white"/>
<path d="M58.3213 8.4848C58.3213 5.77983 59.9227 4.12256 62.3398 4.12256C64.757 4.12256 66.3584 5.77983 66.3584 8.4848C66.3584 11.1898 64.7652 12.8552 62.3398 12.8552C59.9145 12.8552 58.3213 11.1979 58.3213 8.4848ZM64.5845 8.4848C64.5845 6.62071 63.6976 5.54852 62.3371 5.54852C60.9766 5.54852 60.0897 6.62071 60.0897 8.4848C60.0897 10.3489 60.9766 11.4292 62.3371 11.4292C63.6976 11.4292 64.5845 10.3571 64.5845 8.4848Z" fill="white"/>
<path d="M76.5248 12.6946H74.7127L72.9333 6.38663H72.8923L71.1294 12.6946H69.3336L67.0068 4.2749H68.7451L70.2917 10.9013H70.3246L72.0875 4.2749H73.7628L75.5339 10.9013H75.575L77.1216 4.2749H78.8434L76.5248 12.6946Z" fill="white"/>
<path d="M79.9058 4.27509H81.5646V5.68472H81.6057C82.0656 4.7241 82.9662 4.13086 84.2692 4.13086C86.1361 4.13086 87.2065 5.31463 87.2065 7.24403V12.6948H85.46V7.58147C85.46 6.31606 84.8632 5.61941 83.656 5.61941C82.4488 5.61941 81.644 6.48478 81.644 7.78829V12.6948H79.9058V4.27509Z" fill="white"/>
<path d="M88.9473 1.14551H90.6855V12.6947H88.9473V1.14551Z" fill="white"/>
<path d="M92.0952 8.4848C92.0952 5.77983 93.6966 4.12256 96.1137 4.12256C98.5309 4.12256 100.132 5.77983 100.132 8.4848C100.132 11.1898 98.5391 12.8552 96.1137 12.8552C93.6884 12.8552 92.0952 11.1979 92.0952 8.4848ZM98.3584 8.4848C98.3584 6.62071 97.4715 5.54852 96.111 5.54852C94.7505 5.54852 93.8636 6.62071 93.8636 8.4848C93.8636 10.3489 94.7505 11.4292 96.111 11.4292C97.4715 11.4292 98.3584 10.3571 98.3584 8.4848Z" fill="white"/>
<path d="M101.135 10.3002C101.135 8.82797 102.271 7.92449 104.283 7.8102L106.601 7.67413V7.02647C106.601 6.09034 105.966 5.52975 104.901 5.52975C103.894 5.52975 103.267 6.0087 103.114 6.7625H101.471C101.567 5.24129 102.873 4.12012 104.964 4.12012C107.056 4.12012 108.329 5.20047 108.329 6.8904V12.6922H106.661V11.3071H106.62C106.13 12.2432 105.057 12.8364 103.949 12.8364C102.29 12.8364 101.132 11.8132 101.132 10.3002H101.135ZM106.601 9.54095V8.87695L104.515 9.00485C103.478 9.07561 102.889 9.53278 102.889 10.2539C102.889 10.9751 103.502 11.4703 104.436 11.4703C105.651 11.4703 106.601 10.6376 106.601 9.54095Z" fill="white"/>
<path d="M109.637 8.48485C109.637 5.82887 111.055 4.13894 113.179 4.13894C114.394 4.13894 115.361 4.74851 115.837 5.67647H115.87V1.14551H117.616V12.6947H115.925V11.2633H115.892C115.394 12.2239 114.427 12.8389 113.195 12.8389C111.055 12.8389 109.637 11.1436 109.637 8.48485ZM111.416 8.48485C111.416 10.2619 112.278 11.3749 113.655 11.3749C115.032 11.3749 115.886 10.2455 115.886 8.48485C115.886 6.72417 114.994 5.59483 113.655 5.59483C112.317 5.59483 111.416 6.71601 111.416 8.48485Z" fill="white"/>
<path d="M122.357 8.4848C122.357 5.77983 123.959 4.12256 126.376 4.12256C128.793 4.12256 130.394 5.77983 130.394 8.4848C130.394 11.1898 128.801 12.8552 126.376 12.8552C123.951 12.8552 122.357 11.1979 122.357 8.4848ZM128.621 8.4848C128.621 6.62071 127.734 5.54852 126.373 5.54852C125.013 5.54852 124.126 6.62071 124.126 8.4848C124.126 10.3489 125.013 11.4292 126.373 11.4292C127.734 11.4292 128.621 10.3571 128.621 8.4848Z" fill="white"/>
<path d="M131.736 4.27509H133.395V5.68472H133.436C133.896 4.7241 134.796 4.13086 136.099 4.13086C137.966 4.13086 139.037 5.31463 139.037 7.24403V12.6948H137.29V7.58147C137.29 6.31606 136.693 5.61941 135.486 5.61941C134.279 5.61941 133.474 6.48478 133.474 7.78829V12.6948H131.736V4.27509Z" fill="white"/>
<path d="M146.307 2.28027V4.27226H147.917V5.64108H146.307V10.2836C146.307 11.0129 146.63 11.3395 147.336 11.3395C147.514 11.3395 147.796 11.3232 147.909 11.2987V12.6675C147.714 12.7165 147.328 12.7464 146.942 12.7464C145.229 12.7464 144.558 12.0987 144.558 10.4741V5.64108H143.326V4.27226H144.558V2.28027H146.304H146.307Z" fill="white"/>
<path d="M149.409 1.14551H151.131V5.68464H151.172C151.64 4.69953 152.565 4.13077 153.852 4.13077C155.71 4.13077 156.822 5.36352 156.822 7.26843V12.6947H155.075V7.60587C155.075 6.36496 154.448 5.62205 153.225 5.62205C151.935 5.62205 151.147 6.50375 151.147 7.83174V12.6974H149.409V1.14823V1.14551Z" fill="white"/>
<path d="M165.759 10.221C165.518 11.7585 164.054 12.8552 162.113 12.8552C159.625 12.8552 158.119 11.1816 158.119 8.52562C158.119 5.86963 159.649 4.12256 162.039 4.12256C164.429 4.12256 165.855 5.77167 165.855 8.32425V8.91749H159.874V9.0209C159.874 10.485 160.761 11.4537 162.151 11.4537C163.142 11.4537 163.873 10.9585 164.109 10.221H165.759ZM159.882 7.70923H164.117C164.076 6.41934 163.255 5.51586 162.039 5.51586C160.824 5.51586 159.97 6.43566 159.882 7.70923Z" fill="white"/>
</svg>

<svg xmlns="http://www.w3.org/2000/svg" width="170" height="46" fill="none" viewBox="0 0 170 46">
    <path fill="#fff" d="M16.157 9.14c-.282-2.255.843-4.647 2.096-6.117C19.677 1.358 22.154.082 24.125 0c.255 2.351-.676 4.662-2.042 6.357-1.42 1.665-3.704 2.953-5.926 2.787V9.14ZM32.436 29.088c-.027.139-.816 2.87-2.773 5.628-1.648 2.438-3.353 4.816-6.085 4.857-2.647.054-3.534-1.554-6.578-1.554-3.044 0-4.013 1.513-6.548 1.608-2.606.098-4.574-2.601-6.28-5.01C.778 29.69-1.855 20.732 1.68 14.638 3.384 11.645 6.524 9.724 9.86 9.67c2.59-.041 5.012 1.75 6.605 1.75 1.593 0 4.547-2.158 7.618-1.835 1.284.044 4.944.517 7.31 3.935-.184.112-4.353 2.55-4.31 7.56.055 5.992 5.281 7.982 5.352 8.009ZM55.26 18.602h-4.138l-6.69 20.68h3.451l1.843-6.077h6.758l1.944 6.077h3.548l-6.718-20.68h.003Zm-4.943 12.053 1.733-5.388c.449-1.709.772-3.01.985-3.892h.069c.509 2.044.86 3.331 1.043 3.892l1.76 5.388h-5.59ZM77.371 26.148c-1.183-1.385-2.647-2.084-4.42-2.084-2.254 0-3.946.895-5.057 2.672h-.057l-.184-2.367h-2.929c.085 1.679.126 3.303.126 4.9v16.06h3.337v-7.827c.873 1.415 2.294 2.114 4.281 2.114 1.832 0 3.381-.645 4.621-1.96 1.396-1.469 2.083-3.471 2.083-6.005 0-2.28-.591-4.104-1.801-5.503Zm-2.647 9.422c-.704.952-1.675 1.442-2.93 1.442-1.07 0-1.943-.378-2.605-1.118-.663-.743-1-1.669-1-2.744v-2.492c0-.267.055-.602.157-1.007a3.742 3.742 0 0 1 1.308-2.128c.676-.53 1.424-.811 2.24-.811 1.212 0 2.181.49 2.901 1.47.662.938.986 2.127.986 3.583 0 1.581-.354 2.841-1.057 3.807v-.002ZM94.609 26.148c-1.183-1.385-2.648-2.084-4.421-2.084-2.253 0-3.942.895-5.056 2.672h-.055l-.184-2.367h-2.929c.085 1.679.126 3.303.126 4.9v16.06h3.337v-7.827c.873 1.415 2.297 2.114 4.281 2.114 1.832 0 3.381-.645 4.618-1.96 1.397-1.469 2.086-3.471 2.086-6.005 0-2.28-.59-4.104-1.803-5.503ZM91.96 35.57c-.69.952-1.678 1.442-2.929 1.442-1.07 0-1.943-.378-2.606-1.118-.662-.743-1.002-1.669-1.002-2.744v-2.492c0-.267.058-.602.156-1.007.211-.885.65-1.584 1.312-2.128.676-.53 1.42-.811 2.239-.811 1.21 0 2.182.49 2.899 1.47.662.938.985 2.127.985 3.583 0 1.581-.336 2.841-1.054 3.807v-.002ZM114.422 29.888c.859.966 1.281 2.169 1.281 3.597 0 1.764-.619 3.192-1.845 4.297-1.352 1.203-3.238 1.807-5.661 1.807-2.242 0-4.027-.435-5.379-1.287l.775-2.76c1.464.855 3.071 1.288 4.815 1.288 1.253 0 2.239-.28 2.929-.838.703-.561 1.056-1.317 1.056-2.254 0-.84-.295-1.54-.859-2.114-.578-.574-1.536-1.108-2.874-1.598-3.677-1.357-5.492-3.333-5.492-5.921 0-1.693.649-3.08 1.93-4.172 1.284-1.077 2.987-1.624 5.114-1.624 1.886 0 3.462.323 4.716.98l-.843 2.688c-1.182-.629-2.507-.953-3.999-.953-1.169 0-2.1.294-2.76.855-.55.517-.832 1.135-.832 1.878 0 .81.326 1.5.958 2.016.551.49 1.563 1.02 3.028 1.595 1.79.716 3.099 1.554 3.945 2.52h-.003ZM123.069 24.37h3.677v2.492h-3.677V34.1c0 1.835.649 2.757 1.944 2.757.591 0 1.084-.054 1.478-.155l.099 2.52c-.663.237-1.52.365-2.59.365-1.325 0-2.338-.406-3.085-1.206-.745-.797-1.114-2.142-1.114-4.017v-7.518h-2.182v-2.48h2.182v-2.73l3.268-.979V24.37ZM141.364 26.26c-1.336-1.456-3.113-2.185-5.308-2.185-2.196 0-4.098.743-5.45 2.213-1.339 1.47-2.015 3.36-2.015 5.668 0 2.308.649 4.047 1.957 5.489 1.311 1.442 3.071 2.169 5.267 2.169 2.195 0 4.111-.757 5.491-2.27 1.309-1.47 1.971-3.344 1.971-5.641s-.635-4.047-1.916-5.445l.003.002Zm-2.45 9.07c-.731 1.206-1.733 1.807-3.001 1.807-1.267 0-2.31-.587-3.027-1.78-.591-.965-.887-2.141-.887-3.512 0-1.372.282-2.602.887-3.584.69-1.19 1.719-1.78 3.058-1.78 1.338 0 2.293.588 3 1.78.591.98.887 2.141.887 3.513 0 1.371-.31 2.547-.915 3.554l-.002.002ZM154.109 24.119l.014 3.162a6.361 6.361 0 0 0-1.054-.084c-1.169 0-2.083.435-2.718 1.317-.551.767-.833 1.763-.833 2.939v7.826h-3.336V29.06c0-1.722-.028-3.29-.099-4.691h2.902l.126 2.857h.098c.351-.98.901-1.78 1.662-2.367.747-.53 1.549-.798 2.409-.798.309 0 .591.028.832.055l-.003.003ZM169.022 31.118c0-1.862-.449-3.416-1.336-4.705-1.1-1.595-2.745-2.393-4.902-2.393s-3.942.798-5.24 2.393c-1.24 1.499-1.858 3.374-1.858 5.616 0 2.243.662 4.115 1.984 5.473 1.325 1.358 3.154 2.043 5.478 2.043 1.93 0 3.605-.307 5.028-.925l-.52-2.294c-1.212.463-2.565.7-4.043.7-1.336 0-2.422-.351-3.266-1.037-.93-.77-1.407-1.905-1.45-3.375h9.997c.084-.405.126-.908.126-1.5l.002.004Zm-10.112-.868c.099-.996.438-1.862.986-2.578.676-.895 1.563-1.344 2.647-1.344 1.182 0 2.072.463 2.647 1.388.449.713.676 1.567.649 2.547l-6.932-.013h.003ZM51.697 1.146c3.454 0 5.499 2.111 5.499 5.755 0 3.644-2.037 5.794-5.5 5.794H47.6V1.145h4.098Zm-2.294 9.995h2.124c2.463 0 3.824-1.497 3.824-4.226 0-2.73-1.369-4.227-3.824-4.227h-2.124v8.453ZM58.321 8.485c0-2.705 1.602-4.362 4.019-4.362s4.018 1.657 4.018 4.362-1.593 4.37-4.018 4.37c-2.426 0-4.019-1.657-4.019-4.37Zm6.264 0c0-1.864-.887-2.936-2.248-2.936-1.36 0-2.247 1.072-2.247 2.936 0 1.864.887 2.944 2.247 2.944 1.36 0 2.248-1.072 2.248-2.944ZM76.525 12.695h-1.812l-1.78-6.308h-.04l-1.764 6.308h-1.795l-2.327-8.42h1.738l1.547 6.626h.033l1.763-6.626h1.675l1.77 6.626h.042l1.547-6.626h1.721l-2.318 8.42ZM79.906 4.275h1.659v1.41h.04c.46-.96 1.361-1.554 2.664-1.554 1.867 0 2.938 1.184 2.938 3.113v5.45H85.46V7.582c0-1.265-.597-1.962-1.804-1.962s-2.012.866-2.012 2.17v4.906h-1.738v-8.42ZM88.947 1.146h1.739v11.549h-1.739V1.145ZM92.095 8.485c0-2.705 1.602-4.362 4.019-4.362s4.018 1.657 4.018 4.362-1.593 4.37-4.018 4.37c-2.426 0-4.019-1.657-4.019-4.37Zm6.263 0c0-1.864-.886-2.936-2.247-2.936-1.36 0-2.247 1.072-2.247 2.936 0 1.864.886 2.944 2.247 2.944 1.36 0 2.247-1.072 2.247-2.944ZM101.135 10.3c0-1.472 1.136-2.376 3.148-2.49l2.318-.136v-.648c0-.936-.635-1.496-1.7-1.496-1.007 0-1.634.479-1.787 1.232h-1.643c.096-1.52 1.402-2.642 3.493-2.642 2.092 0 3.365 1.08 3.365 2.77v5.802h-1.668v-1.385h-.041c-.49.936-1.563 1.53-2.671 1.53-1.659 0-2.817-1.024-2.817-2.537h.003Zm5.466-.76v-.663l-2.086.128c-1.037.07-1.626.528-1.626 1.249 0 .721.613 1.216 1.547 1.216 1.215 0 2.165-.832 2.165-1.93ZM109.637 8.485c0-2.656 1.418-4.346 3.542-4.346 1.215 0 2.182.61 2.658 1.537h.033v-4.53h1.746v11.549h-1.691v-1.432h-.033c-.498.96-1.465 1.576-2.697 1.576-2.14 0-3.558-1.695-3.558-4.354Zm1.779 0c0 1.777.862 2.89 2.239 2.89 1.377 0 2.231-1.13 2.231-2.89 0-1.76-.892-2.89-2.231-2.89-1.338 0-2.239 1.121-2.239 2.89ZM122.357 8.485c0-2.705 1.602-4.362 4.019-4.362s4.018 1.657 4.018 4.362-1.593 4.37-4.018 4.37-4.019-1.657-4.019-4.37Zm6.264 0c0-1.864-.887-2.936-2.248-2.936-1.36 0-2.247 1.072-2.247 2.936 0 1.864.887 2.944 2.247 2.944 1.361 0 2.248-1.072 2.248-2.944ZM131.736 4.275h1.659v1.41h.041c.46-.96 1.36-1.554 2.663-1.554 1.867 0 2.938 1.184 2.938 3.113v5.45h-1.747V7.582c0-1.265-.597-1.962-1.804-1.962s-2.012.866-2.012 2.17v4.906h-1.738v-8.42ZM146.307 2.28v1.992h1.61v1.37h-1.61v4.642c0 .729.323 1.055 1.029 1.055.178 0 .46-.016.573-.04v1.369c-.195.049-.581.078-.967.078-1.713 0-2.384-.647-2.384-2.272V5.641h-1.232V4.272h1.232V2.28H146.307ZM149.409 1.146h1.722v4.539h.041c.468-.985 1.393-1.554 2.68-1.554 1.858 0 2.97 1.233 2.97 3.137v5.427h-1.747v-5.09c0-1.24-.627-1.983-1.85-1.983-1.29 0-2.078.882-2.078 2.21v4.865h-1.738V1.146ZM165.759 10.221c-.241 1.537-1.705 2.634-3.646 2.634-2.488 0-3.994-1.673-3.994-4.33 0-2.655 1.53-4.402 3.92-4.402 2.39 0 3.816 1.649 3.816 4.201v.593h-5.981v.104c0 1.464.887 2.433 2.277 2.433.991 0 1.722-.495 1.958-1.233h1.65Zm-5.877-2.512h4.235c-.041-1.29-.862-2.193-2.078-2.193-1.215 0-2.069.92-2.157 2.193Z"/>
</svg>
